X:1
T:" Ay. " Bolero, Op.16 
T:Carl Henze (1872 - 1946)
%%score ( 1 2 )
L:1/8
Q:1/4=92
M:3/4
K:C
V:1 treble-8 nm="Guitare classique"
V:2 treble-8 
V:1
"^ ≃ 92""_" [Ace][Ace]/[Ace]/ [Ace][Ace] [Adf][Adf] | [Ace][Ace]/[Ace]/ [Ace][Ace] [E^Gd][EGd] | %2
 [EAc][EAc]/[EAc]/!>(! [EAc][EAc] [E^GB][EGB]!>)! |"_" [EA][EA]/[EA]/ [EA][EA]!<(! A/B/c/d/!<)! | %4
"_" [Ace][Ace]/[Ace]/ [Ace][Ace] [Adf][Adf] | [Ace][Ace]/[Ace]/ [Ace][Ace] [E^Gd][EGd] | %6
 [EAc][EAc]/[EAc]/!>(! [EAc][EAc] [E^GB][EGB]!>)! |"_" [EA][EA]/[EA]/ [EA][EA]"_" [G,FG]2 | %8
"_" [GBf][GBf]/[GBf]/ [GBf][GBf] [GBf]/e/g/f/ | [Gce][Gce]/[Gce]/ [Gce][Gce] x2 | %10
 [GBf][GBf]/[GBf]/ [GBf][GBf] [GBe]/f/g/f/ | [Gce][Gce]/[Gce]/ [Gce][Gce] [Gce] z | %12
"_" [cfa][cfa]/[cfa]/ [cfa][cfa] [cfc'][cfa] | [ceg][ceg]/[ceg]/ [ceg][ceg] [ceg][ceg] | %14
 [cfa][cfa]/[cfa]/ [cfa][cfa] [cfc'][cfa] | [ceg][ceg]/[ceg]/ [ceg][ceg] [ceg][ceg] | %16
"_" !3!!2!!4![_B^cg][Bcg]/[Bcg]/ [Bcg][Bcg] [Adf]2 | [ce][ce]/[ce]/ [ce][ce][Gce][Gce] | %18
 [GBf][GBf]/[GBf]/ [GBf][GBf][GBf][GBf] |!>(! [Gce][Gce]/[Gce]/ [Gce][Gce] [CGce]!>)! z |: %20
"_" z [Ace]/[Ace]/ [Ace][Ace]!>(! x2!>)! | z [Ace]/[Ace]/ [Ace][Ace][Ace][Ace] | %22
 z [Adf]/[Adf]/ [Adf][Adf]!>(! x2!>)! | z [Ace]/[Ace]/ [Ace][Ace][Ace][Ace] | %24
"_cresc."x2x[Adf][Adf][Adf] |x2x[Ace][Ace][Ace] |"_" x6 |"_" [^GBe]e/e/ ee!>(! x2!>)! :| %28
"_" [Ace][Ace]/[Ace]/ [Ace][Ace] [Adf][Adf] | [Ace][Ace]/[Ace]/ [Ace][Ace] [E^Gd][EGd] | %30
 [EAc][EAc]/[EAc]/!>(! [EAc][EAc] [E^GB][EGB]!>)! |"_" [EA][EA]/[EA]/ [EA][EA]!<(! A/B/c/d/!<)! | %32
"_" [Ace][Ace]/[Ace]/ [Ace][Ace] [Adf][Adf] | [Ace][Ace]/[Ace]/ [Ace][Ace] [E^Gd][EGd] | %34
!>(! [EAc][EAc]/[EAc]/ [EAc][EAc] [E^GB]!>)![EGB] | %35
"_"[Q:1/4=92] [EA]"^rall."[Q:1/4=90]"^.7"[EA]/[Q:1/4=90][EA]/[Q:1/4=89]"^.3" [EA][Q:1/4=88][EA][Q:1/4=86]"^.7" [D^GB][Q:1/4=85]"^.3"[DGB] | %36
"_""^e morendo"[Q:1/4=84] [EA][Q:1/4=82]"^.7"[EA]/[Q:1/4=82][EA]/[Q:1/4=81]"^.3" [EA][Q:1/4=80][EA][Q:1/4=78]"^.7" [D^GB][Q:1/4=77]"^.3"[DGB] | %37
[Q:1/4=76]!>(! [A,CEA][Q:1/4=74]"^.7" z[Q:1/4=73]"^.3""^₵5" [A,cea]2"_"[Q:1/4=70]"^.7" [A,cea]2!>)! | %38
[Q:1/4=68] [A,cea]2[Q:1/4=65]"^.3" z2[Q:1/4=62]"^.7" z2 |] %39
V:2
 A,4 A,2 | A,4 E,2 | A,4 E,2 | A,4 z2 | A,4 A,2 | A,4 E,2 | A,4 E,2 | A,4 x2 | G,4 D2 | %9
 C4 B,/C/D/E/ | D4 G,2 | C4 z2 | x6 | x6 | x6 | x6 | E4- ED | G3 GEC | D3 G,A,B, | C4 x2 |: %20
 A,4 A,/B,/C/B,/ | A,6 | D4 D/E/F/D/ | E6 | FF/E/ D4 | EE/D/ C4 | C!<(!C/B,/ A,A,/!<)!B,/ CA, | %27
 E,4 E/D/C/B,/ :| A,4 A,2 | A,4 E,2 | A,4 E,2 | A,4 z2 | A,4 A,2 | A,4 E,2 | A,4 E,2 | A,4 E,2 | %36
 A,4 E,2 | x6 | x6 |] %39

